X:1
T:Mamacita
C:Joe Henderson
L:1/8
M:4/4
K:F
V:1 treble nm="[Alto Saxophone]"
V:1
|: z8 | z8 | z8 |z4z2zg ::"F7" f2 c_e- e4- | _e6zg | f2 cc _ecec- | c2>g2 f2>c'2 | %8
"Bb7" b2 ff _afaf- | f2>_a2z2zg | f_ecB ecec- | c4 z4 |"^C7(#9)" bc'- c'2 _e'c'- c'2 | %13
"^Bb7(#9)" _ab- b2 _d'b- b2 |"F7" z2 cc _ecef- |"C7" f4z2zg :| %16

